!!!COM: Scriabin, Alexander
!!!OTL@@FR: Prélude
!!!OTL@@EN: Prelude
!!!OPR@@FR: 5 Préludes
!!!OPR@@EN: 5 Preludes
!!!OPS: 74
!!!ONM: 3
!!!ODT: 1914
!!!AGN: Prelude
**kern	**kern	**dynam
*staff2	*staff1	*staff1/2
*Ipiano	*Ipiano	*
*clefF4	*clefG2	*
*k[]	*k[]	*
*X:	*X:	*
*M9/8	*M9/8	*
=1	=1	=1
*^	*^	*
8r	8%9ryy	[2.A#	8A#X	.
8r	.	.	[4an	.
8BB#X	.	.	.	.
4FF#X	.	.	4a]	.
[8BB#	.	.	8g#X	.
8BB#]	.	4.A#]	8gnL	.
4FF#	.	.	8e	.
.	.	.	8d#XJ	.
*	*	*v	*v	*
=2	=2	=2	=2
8rEE	[2.Gn	[2.c#X [2.e [2.an [2.cc#X	.
8BB#XL	.	.	.
8FF#XJ	.	.	.
4BB#	.	.	.
8FF#	.	.	.
8BB#L	4.G]	4.c#] 4.e] 4.a] 4.cc#]	.
8FF#	.	.	.
8BB#J	.	.	.
=3	=3	=3	=3
*	*	*^	*
8rEE	[2.A#X	8rc	8raa	.
8rEE	.	[4e	8eL	.
8BB#X	.	.	[8dd#XJ	.
4FF#X	.	2.e]	4dd#]	.
[8BB#	.	.	8ddn	.
8BB#]	4.A#]	.	8cc#XL	.
4FF#	.	.	8a#X	.
.	.	.	8anJ	.
=4	=4	=4	=4	=4
8rEE	[2.c#X	[2.g [2.a#X [2.dd#X [2.gg	8raa	.
8BB#XL	.	.	[4aan	.
8FF#XJ	.	.	.	.
4BB#	.	.	4.aa_	.
8FF#	.	.	.	.
8BB#L	4.c#]	4.g] 4.a#] 4.dd#] 4.gg]	4aa]	.
8FF#	.	.	.	.
8BB#J	.	.	8aa	.
=5	=5	=5	=5	=5
8rEE	[2.e	[2.a#X	[4.aan	.
8rEE	.	.	.	.
8BB#X	.	.	.	.
4FF#X	.	.	4aa]	.
[8BB#	.	.	8gg#X	.
8BB#]	4.e]	4.a#]	8ggnL	.
4FF#	.	.	8ee	.
.	.	.	8dd#XJ	.
=6	=6	=6	=6	=6
*	*	*	*^	*
8rEE	[2.c#X	8r	[2.g	[2.ff#X	.
8D#XL	.	[4A#X [4a#X	.	.	.
8AAnJ	.	.	.	.	.
4D#	.	4.A#_ 4.a#_	.	.	.
8AA	.	.	.	.	.
8D#L	4.c#]	4A#] 4a#]	4.g]	4.ff#]	.
8AA	.	.	.	.	.
8D#J	.	[8A# [8a#	.	.	.
=7	=7	=7	=7	=7	=7
8rEE	[2.c#X	4.A#] 4.a#]	8rc	8raa	.
8rEE	.	.	[4g	[4ff#X	.
8D#X	.	.	.	.	.
4AAn	.	2.r	2.g]	4ff#]	.
[8D#	.	.	.	8ee#X	.
8D#]	4.c#]	.	.	8eenL	.
4AA	.	.	.	8cc#X	.
.	.	.	.	8b#XJ	.
*	*	*	*v	*v	*
*	*	*v	*v	*
=8	=8	=8	=8
8rEE	[2.e	8r	.
8rEE	.	[4dd#X	.
8F#X	.	.	.
4BB#X	.	4dd#]	.
[8F#	.	8ddn	.
8F#]	4.e]	8cc#XL	.
4BB#	.	8a#X	.
.	.	8anJ	.
=9	=9	=9	=9
[2.D#X [2.A [2.c#X [2.e	8%9ryy	[4.ccn	.
.	.	8ccL]	.
.	.	8g	.
.	.	8f#XJ	.
4.D#_ 4.A_ 4.c#_ 4.e_	.	8aL	.
.	.	8a#X	.
.	.	8anJ	.
=10	=10	=10	=10
2.D#_ 2.A_ 2.c#_ 2.e_	8%9ryy	8ccnL	.
.	.	8g	.
.	.	8f#XJ	.
.	.	8aL	.
.	.	8a#X	.
.	.	8anJ	.
4.D#] 4.A] 4.c#] 4.e]	.	8b#XL	.
.	.	8a#X	.
.	.	8anJ	.
=11	=11	=11	=11
[2.BB#X [2.F#X [2.A#X [2.e	8%9ryy	8b#XL	.
.	.	8cc#X	.
.	.	8b#J	.
.	.	8dd#XL	.
.	.	8a#X	.
.	.	8anJ	.
4.BB#_ 4.F#_ 4.A#_ 4.e_	.	8b#L	.
.	.	8cc#	.
.	.	8b#J	.
=12	=12	=12	=12
2.BB#_ 2.F#_ 2.A#_ 2.e]	8%9ryy	8dd#XL	.
.	.	8cc#X	.
.	.	8b#XJ	.
.	.	8a#XL	.
.	.	8an	.
.	.	8gJ	.
4.BB#] 4.F#] 4.A#]	.	8.f#XL	.
.	.	8.eJ	.
=13	=13	=13	=13
*	*	*^	*
8r	8%9ryy	[2.E	8E	.
8r	.	.	[4d#X	.
8FF#X	.	.	.	.
4BBB#X	.	.	4d#]	.
[8FF#	.	.	8dn	.
8FF#]	.	4.E]	8c#XL	.
4BBB#	.	.	8A#X	.
.	.	.	8AnJ	.
*	*	*v	*v	*
=14	=14	=14	=14
8rEE	[2.C#X	[2.G [2.A#X [2.d#X [2.g	.
8FF#XL	.	.	.
8BBB#XJ	.	.	.
4FF#	.	.	.
8BBB#	.	.	.
8FF#L	4.C#]	4.G] 4.A#] 4.d#] 4.g]	.
8BBB#	.	.	.
8FF#J	.	.	.
=15	=15	=15	=15
*	*	*^	*
8rEE	[2.E	8rc	8raa	.
8rEE	.	[4A#	8A#XL	.
8FF#X	.	.	[8anJ	.
4BBB#X	.	2.A#]	4a]	.
[8FF#	.	.	8g#X	.
8FF#]	4.E]	.	8gnL	.
4BBB#	.	.	8e	.
.	.	.	8d#XJ	.
=16	=16	=16	=16	=16
8rEE	[2.G	[2.c#X [2.e [2.an [2.cc#X	8raa	.
8FF#XL	.	.	[4dd#X	.
8BBB#XJ	.	.	.	.
4FF#	.	.	4.dd#_	.
8BBB#	.	.	.	.
8FF#L	4.G]	4.c#] 4.e] 4.a] 4.cc#]	4dd#]	.
8BBB#	.	.	.	.
8FF#J	.	.	8dd#	.
=17	=17	=17	=17	=17
8rEE	[2.A#X	[2.e	[4.dd#X	.
8rEE	.	.	.	.
8FF#X	.	.	.	.
4BBB#X	.	.	4dd#]	.
[8FF#	.	.	8ddn	.
8FF#]	4.A#]	4.e]	8cc#XL	.
4BBB#	.	.	8a#X	.
.	.	.	8anJ	.
=18	=18	=18	=18	=18
*	*	*	*^	*
8rEE	[2.G	8r	[2.c#X	[2.b#X	.
8AAL	.	[4E [4e	.	.	.
8DD#XJ	.	.	.	.	.
4AA	.	4.E_ 4.e_	.	.	.
8DD#	.	.	.	.	.
8AAL	4.G]	4E] 4e]	4.c#]	4.b#]	.
8DD#	.	.	.	.	.
8AAJ	.	[8E [8e	.	.	.
=19	=19	=19	=19	=19	=19
8rEE	[2.G	4.E] 4.e]	8rc	8raa	.
8rEE	.	.	[4c#X	[4b#X	.
8AA	.	.	.	.	.
4DD#X	.	2.r	2.c#]	4b#]	.
[8AA	.	.	.	8bn	.
8AA]	4.G]	.	.	8a#XL	.
4DD#	.	.	.	8g	.
.	.	.	.	8f#XJ	.
*	*	*	*v	*v	*
*	*	*v	*v	*
=20	=20	=20	=20
8rEE	[2.A#X	8r	.
8rEE	.	[4an	.
8BB#X	.	.	.
4FF#X	.	4a]	.
[8BB#	.	8g#X	.
8BB#]	4.A#]	8gnL	.
4FF#	.	8e	.
.	.	8d#XJ	.
*v	*v	*	*
=21	=21	=21
[2.AAn [2.D [2.G#X [2.A#X	[4.f#X	.
.	8f#L]	.
.	8c#X	.
.	8B#XJ	.
4.AA_ 4.D_ 4.G#_ 4.A#_	8d#XL	.
.	8e	.
.	8d#J	.
=22	=22	=22
2.AA_ 2.D_ 2.G#_ 2.A#_	8f#XL	.
.	8c#X	.
.	8B#XJ	.
.	8d#XL	.
.	8e	.
.	8d#J	.
4.AA] 4.D] 4.G#] 4.A#]	8f#L	.
.	8e	.
.	8d#J	.
=23	=23	=23
[2.FF#X [2.BB#X [2.E [2.A#X	8f#XL	.
.	8g	.
.	8f#J	.
.	8anL	.
.	8e	.
.	8d#XJ	.
4.FF#_ 4.BB#_ 4.E_ 4.A#_	8f#L	.
.	8g	.
.	8f#J	.
=24	=24	=24
2.FF#_ 2.BB#_ 2.E_ 2.A#]	8aL	.
.	8g	.
.	8f#XJ	.
.	8eL	.
.	8d#X	.
.	8c#XJ	.
4.FF#] 4.BB#] 4.E]	8B#XL	.
.	8A#X	.
.	8AnJ	.
=25	=25	=25
8%9r	4r	.
.	8r	.
.	8r	.
.	8d#XL	.
.	8c#XJ	.
.	8B#XL	.
.	8A#X	.
.	8AnJ	.
=26	=26	=26
.	[8qEn	.
[2.FFF#X [2.FF#X	2.E_ [2.G#X 2.A#X [2.B [2.d#X	.
4.FFF#] 4.FF#]	4.E] 4.G#] 4.A# 4.B] 4.d#]	.
==	==	==
*-	*-	*-
!!!system-decoration: {(*)}
!!!ENC: Bryan Jacob Bell
!!!END: November 2021 to April 2022
!!!PED: Günter Philipp
!!!PTL: Ausgewählte Klavierwerke (Edition Peters)
